; generated by Slic3r 1.3.1-dev on 2019-01-19 at 18:54:51

; external perimeters extrusion width = 0.44mm (5.63mm^3/s)
; perimeters extrusion width = 0.48mm (7.54mm^3/s)
; infill extrusion width = 0.48mm (10.05mm^3/s)
; solid infill extrusion width = 0.48mm (6.28mm^3/s)
; top infill extrusion width = 0.48mm (6.28mm^3/s)

M107
M190 S60 ; set bed temperature and wait for it to be reached
M104 S205 ; set temperature
G28 ; home all axes
G1 Z5 F5000 ; lift nozzle

; Filament gcode

M109 S205 ; set temperature and wait for it to be reached
G21 ; set units to millimeters
G90 ; use absolute coordinates
M82 ; use absolute distances for extrusion
G92 E0
G92 E0
G1 Z0.200 F7800.000
G1 E-2.00000 F2400.00000
G92 E0
G1 X85.346 Y74.717 F7800.000
G1 E2.00000 F2400.00000
G1 F1800
G1 X86.418 Y73.522 E2.09531
G1 X87.440 Y72.577 E2.17796
G1 X88.922 Y71.449 E2.28858
G1 X90.330 Y70.585 E2.38665
G1 X91.634 Y69.929 E2.47334
G1 X93.391 Y69.232 E2.58557
G1 X95.016 Y68.753 E2.68621
G1 X96.491 Y68.443 E2.77571
G1 X98.190 Y68.224 E2.87745
G1 X99.902 Y68.145 E2.97922
G1 X101.810 Y68.224 E3.09258
G1 X103.315 Y68.411 E3.18264
G1 X104.984 Y68.753 E3.28382
G1 X106.609 Y69.232 E3.38446
G1 X108.176 Y69.844 E3.48429
G1 X109.856 Y70.689 E3.59600
G1 X111.078 Y71.449 E3.68145
G1 X112.387 Y72.432 E3.77864
G1 X113.748 Y73.692 E3.88879
G1 X114.654 Y74.717 E3.97003
G1 X115.588 Y76.001 E4.06432
G1 X116.373 Y77.367 E4.15790
G1 X116.488 Y77.599 E4.17324
G1 X117.001 Y78.800 E4.25079
G1 X117.092 Y79.053 E4.26674
G1 X117.461 Y80.291 E4.34345
G1 X117.523 Y80.554 E4.35951
G1 X117.746 Y81.816 E4.43561
G1 X117.778 Y82.087 E4.45185
G1 X117.857 Y83.500 E4.53586
G1 X117.857 Y186.500 E10.65227
G1 X117.778 Y187.913 E10.73628
G1 X117.746 Y188.184 E10.75252
G1 X117.523 Y189.446 E10.82862
G1 X117.461 Y189.709 E10.84468
G1 X117.092 Y190.947 E10.92139
G1 X117.001 Y191.200 E10.93734
G1 X116.373 Y192.633 E11.03021
G1 X115.588 Y193.999 E11.12380
G1 X114.806 Y195.093 E11.20366
G1 X113.582 Y196.477 E11.31338
G1 X112.387 Y197.568 E11.40948
G1 X111.260 Y198.425 E11.49357
G1 X109.856 Y199.311 E11.59212
G1 X108.366 Y200.071 E11.69142
G1 X106.610 Y200.768 E11.80365
G1 X104.984 Y201.247 E11.90429
G1 X103.315 Y201.589 E12.00548
G1 X101.617 Y201.792 E12.10702
G1 X99.902 Y201.855 E12.20889
G1 X98.383 Y201.792 E12.29918
G1 X96.685 Y201.589 E12.40072
G1 X95.016 Y201.247 E12.50191
G1 X93.391 Y200.768 E12.60255
G1 X91.824 Y200.156 E12.70238
G1 X90.330 Y199.415 E12.80147
G1 X88.922 Y198.551 E12.89954
G1 X87.613 Y197.568 E12.99672
G1 X86.418 Y196.478 E13.09282
G1 X85.346 Y195.283 E13.18812
G1 X84.412 Y193.999 E13.28241
G1 X83.627 Y192.633 E13.37600
G1 X82.999 Y191.200 E13.46887
G1 X82.908 Y190.947 E13.48482
G1 X82.539 Y189.709 E13.56153
G1 X82.477 Y189.446 E13.57759
G1 X82.254 Y188.184 E13.65369
G1 X82.222 Y187.913 E13.66993
G1 X82.143 Y186.500 E13.75394
G1 X82.143 Y83.500 E19.87035
G1 X82.222 Y82.087 E19.95436
G1 X82.254 Y81.816 E19.97059
G1 X82.477 Y80.554 E20.04670
G1 X82.539 Y80.291 E20.06275
G1 X82.908 Y79.053 E20.13947
G1 X82.999 Y78.800 E20.15542
G1 X83.627 Y77.367 E20.24829
G1 X84.277 Y76.214 E20.32689
G1 X84.412 Y76.001 E20.34189
G1 X85.309 Y74.764 E20.43262
G1 E18.43262 F2400.00000
G92 E0
G1 X101.869 Y190.779 F7800.000
G1 E2.00000 F2400.00000
G1 F1800
G1 X102.284 Y191.595 E2.05433
G1 X102.429 Y192.500 E2.10878
G1 X102.283 Y193.408 E2.16341
G1 X101.857 Y194.232 E2.21849
G1 X101.221 Y194.869 E2.27196
G1 X100.405 Y195.284 E2.32629
G1 X99.500 Y195.429 E2.38074
G1 X98.595 Y195.284 E2.43519
G1 X97.779 Y194.869 E2.48952
G1 X97.131 Y194.221 E2.54395
G1 X96.716 Y193.405 E2.59833
G1 X96.572 Y192.500 E2.65272
G1 X96.716 Y191.595 E2.70712
G1 X97.131 Y190.779 E2.76150
G1 X97.779 Y190.131 E2.81592
G1 X98.595 Y189.716 E2.87030
G1 X99.474 Y189.577 E2.92311
G1 X100.400 Y189.713 E2.97874
G1 X101.221 Y190.131 E3.03341
G1 X101.827 Y190.737 E3.08427
G1 X101.576 Y190.992 F7800.000
G1 F1800
G1 X101.940 Y191.706 E3.13191
G1 X102.067 Y192.500 E3.17963
G1 X101.940 Y193.295 E3.22746
G1 X101.566 Y194.019 E3.27584
G1 X101.008 Y194.576 E3.32264
G1 X100.294 Y194.940 E3.37028
G1 X99.500 Y195.067 E3.41800
G1 X98.706 Y194.940 E3.46572
G1 X97.992 Y194.576 E3.51335
G1 X97.424 Y194.008 E3.56105
G1 X97.060 Y193.293 E3.60871
G1 X96.934 Y192.500 E3.65640
G1 X97.060 Y191.707 E3.70408
G1 X97.424 Y190.992 E3.75174
G1 X97.992 Y190.424 E3.79944
G1 X98.707 Y190.060 E3.84710
G1 X99.475 Y189.938 E3.89331
G1 X100.290 Y190.058 E3.94224
G1 X101.008 Y190.424 E3.99007
G1 X101.534 Y190.949 E4.03421
G1 X101.284 Y191.204 F7800.000
G1 F1800
G1 X101.597 Y191.818 E4.07514
G1 X101.706 Y192.500 E4.11613
G1 X101.596 Y193.182 E4.15717
G1 X101.274 Y193.806 E4.19885
G1 X100.796 Y194.284 E4.23899
G1 X100.182 Y194.597 E4.27993
G1 X99.500 Y194.706 E4.32092
G1 X98.818 Y194.597 E4.36191
G1 X98.204 Y194.284 E4.40285
G1 X97.716 Y193.796 E4.44382
G1 X97.403 Y193.182 E4.48476
G1 X97.296 Y192.500 E4.52573
G1 X97.403 Y191.818 E4.56671
G1 X97.716 Y191.204 E4.60765
G1 X98.204 Y190.716 E4.64862
G1 X98.818 Y190.403 E4.68957
G1 X99.477 Y190.299 E4.72918
G1 X100.181 Y190.403 E4.77139
G1 X100.796 Y190.716 E4.81240
G1 X101.241 Y191.162 E4.84980
G1 X101.284 Y191.204 F7800.000
G1 E2.84980 F2400.00000
G92 E0
G1 X108.417 Y183.417 F7800.000
G1 E2.00000 F2400.00000
G1 F1800
G1 X93.584 Y183.417 E2.88084
G1 X93.584 Y86.583 E8.63111
G1 X108.417 Y86.583 E9.51195
G1 X108.417 Y183.357 E15.25866
G1 X108.060 Y183.060 F7800.000
G1 F1800
G1 X93.941 Y183.060 E16.09709
G1 X93.941 Y86.940 E21.80496
G1 X108.060 Y86.940 E22.64339
G1 X108.060 Y183.000 E28.34769
G1 X107.703 Y182.703 F7800.000
G1 F1800
G1 X94.298 Y182.703 E29.14372
G1 X94.298 Y87.297 E34.80917
G1 X107.703 Y87.297 E35.60519
G1 X107.703 Y182.643 E41.26709
G1 X107.722 Y183.103 F7800.000
G1 E39.26709 F2400.00000
G92 E0
G1 X99.500 Y80.428 F7800.000
G1 E2.00000 F2400.00000
G1 F1800
G1 X98.592 Y80.284 E2.05458
G1 X97.768 Y79.857 E2.10970
G1 X97.131 Y79.221 E2.16316
G1 X96.716 Y78.405 E2.21754
G1 X96.572 Y77.500 E2.27194
G1 X96.716 Y76.595 E2.32633
G1 X97.131 Y75.779 E2.38071
G1 X97.779 Y75.131 E2.43514
G1 X98.595 Y74.716 E2.48947
G1 X99.474 Y74.575 E2.54233
G1 X100.401 Y74.714 E2.59802
G1 X101.221 Y75.131 E2.65264
G1 X101.869 Y75.779 E2.70707
G1 X102.284 Y76.595 E2.76140
G1 X102.429 Y77.500 E2.81585
G1 X102.284 Y78.405 E2.87030
G1 X101.869 Y79.221 E2.92464
G1 X101.221 Y79.869 E2.97906
G1 X100.405 Y80.284 E3.03344
G1 X99.559 Y80.418 E3.08427
G1 X99.500 Y80.066 F7800.000
G1 F1800
G1 X98.705 Y79.940 E3.13207
G1 X97.981 Y79.566 E3.18047
G1 X97.424 Y79.008 E3.22728
G1 X97.060 Y78.293 E3.27494
G1 X96.934 Y77.500 E3.32262
G1 X97.060 Y76.707 E3.37031
G1 X97.424 Y75.992 E3.41797
G1 X97.992 Y75.424 E3.46567
G1 X98.706 Y75.060 E3.51330
G1 X99.475 Y74.937 E3.55955
G1 X100.291 Y75.058 E3.60850
G1 X101.008 Y75.424 E3.65632
G1 X101.576 Y75.992 E3.70401
G1 X101.940 Y76.706 E3.75165
G1 X102.067 Y77.500 E3.79937
G1 X101.940 Y78.294 E3.84709
G1 X101.576 Y79.008 E3.89472
G1 X101.008 Y79.576 E3.94242
G1 X100.293 Y79.940 E3.99008
G1 X99.559 Y80.057 E4.03421
G1 X99.500 Y79.704 F7800.000
G1 F1800
G1 X98.818 Y79.596 E4.07522
G1 X98.194 Y79.274 E4.11691
G1 X97.716 Y78.796 E4.15706
G1 X97.403 Y78.182 E4.19800
G1 X97.296 Y77.500 E4.23897
G1 X97.403 Y76.818 E4.27995
G1 X97.716 Y76.204 E4.32089
G1 X98.204 Y75.716 E4.36186
G1 X98.818 Y75.403 E4.40279
G1 X99.477 Y75.298 E4.44243
G1 X100.181 Y75.403 E4.48465
G1 X100.796 Y75.716 E4.52565
G1 X101.284 Y76.204 E4.56662
G1 X101.597 Y76.818 E4.60756
G1 X101.706 Y77.500 E4.64855
G1 X101.597 Y78.182 E4.68954
G1 X101.284 Y78.796 E4.73048
G1 X100.796 Y79.284 E4.77145
G1 X100.182 Y79.597 E4.81239
G1 X99.559 Y79.695 E4.84980
G1 X99.500 Y79.704 F7800.000
G1 E2.84980 F2400.00000
G92 E0
G1 X99.158 Y71.450 F7800.000
G1 E2.00000 F2400.00000
G1 F1800
G1 X100.000 Y71.415 E2.05006
G1 X101.367 Y71.472 E2.13132
G1 X102.875 Y71.653 E2.22151
G1 X104.273 Y71.947 E2.30635
G1 X105.632 Y72.354 E2.39057
G1 X106.932 Y72.870 E2.47366
G1 X108.163 Y73.489 E2.55548
G1 X109.314 Y74.205 E2.63593
G1 X110.372 Y75.009 E2.71485
G1 X111.328 Y75.893 E2.79216
G1 X112.172 Y76.848 E2.86786
G1 X112.898 Y77.864 E2.94199
G1 X113.499 Y78.930 E3.01470
G1 X113.972 Y80.037 E3.08617
G1 X114.311 Y81.175 E3.15667
G1 X114.516 Y82.333 E3.22650
G1 X114.586 Y83.527 E3.29753
G1 X114.586 Y186.473 E9.41074
G1 X114.516 Y187.667 E9.48178
G1 X114.311 Y188.825 E9.55161
G1 X113.972 Y189.963 E9.62210
G1 X113.499 Y191.070 E9.69358
G1 X112.898 Y192.136 E9.76628
G1 X112.172 Y193.152 E9.84042
G1 X111.328 Y194.107 E9.91611
G1 X110.372 Y194.991 E9.99342
G1 X109.314 Y195.795 E10.07234
G1 X108.163 Y196.511 E10.15280
G1 X106.932 Y197.130 E10.23462
G1 X105.632 Y197.646 E10.31771
G1 X104.273 Y198.053 E10.40193
G1 X102.873 Y198.348 E10.48687
G1 X101.444 Y198.525 E10.57243
G1 X100.000 Y198.585 E10.65823
G1 X98.556 Y198.525 E10.74402
G1 X97.127 Y198.348 E10.82958
G1 X95.727 Y198.053 E10.91452
G1 X94.368 Y197.646 E10.99874
G1 X93.068 Y197.130 E11.08183
G1 X91.837 Y196.511 E11.16365
G1 X90.686 Y195.795 E11.24411
G1 X89.628 Y194.991 E11.32303
G1 X88.672 Y194.107 E11.40034
G1 X87.828 Y193.152 E11.47603
G1 X87.102 Y192.136 E11.55017
G1 X86.501 Y191.070 E11.62287
G1 X86.028 Y189.963 E11.69435
G1 X85.689 Y188.825 E11.76485
G1 X85.484 Y187.667 E11.83467
G1 X85.414 Y186.473 E11.90571
G1 X85.414 Y83.527 E18.01892
G1 X85.484 Y82.333 E18.08995
G1 X85.689 Y81.175 E18.15978
G1 X86.028 Y80.037 E18.23028
G1 X86.501 Y78.930 E18.30175
G1 X87.102 Y77.864 E18.37446
G1 X87.828 Y76.848 E18.44859
G1 X88.672 Y75.893 E18.52429
G1 X89.628 Y75.009 E18.60160
G1 X90.686 Y74.205 E18.68052
G1 X91.837 Y73.489 E18.76097
G1 X93.068 Y72.870 E18.84279
G1 X94.368 Y72.354 E18.92588
G1 X95.727 Y71.947 E19.01010
G1 X97.127 Y71.652 E19.09505
G1 X98.556 Y71.475 E19.18060
G1 X99.098 Y71.452 E19.21277
G1 X99.143 Y71.093 F7800.000
G1 F1800
G1 X100.000 Y71.058 E19.26372
G1 X101.396 Y71.115 E19.34668
G1 X102.933 Y71.300 E19.43863
G1 X104.361 Y71.600 E19.52529
G1 X105.749 Y72.017 E19.61132
G1 X107.079 Y72.544 E19.69626
G1 X108.338 Y73.177 E19.77998
G1 X109.517 Y73.910 E19.86239
G1 X110.601 Y74.735 E19.94332
G1 X111.583 Y75.643 E20.02272
G1 X112.452 Y76.625 E20.10058
G1 X113.199 Y77.672 E20.17695
G1 X113.820 Y78.772 E20.25195
G1 X114.308 Y79.916 E20.32580
G1 X114.659 Y81.092 E20.39873
G1 X114.871 Y82.291 E20.47101
G1 X114.943 Y83.516 E20.54390
G1 X114.943 Y186.484 E26.65836
G1 X114.871 Y187.709 E26.73125
G1 X114.659 Y188.908 E26.80352
G1 X114.308 Y190.084 E26.87645
G1 X113.820 Y191.228 E26.95030
G1 X113.199 Y192.328 E27.02530
G1 X112.452 Y193.375 E27.10167
G1 X111.583 Y194.357 E27.17953
G1 X110.601 Y195.265 E27.25893
G1 X109.517 Y196.090 E27.33987
G1 X108.338 Y196.823 E27.42227
G1 X107.079 Y197.456 E27.50599
G1 X105.749 Y197.983 E27.59093
G1 X104.361 Y198.400 E27.67696
G1 X102.932 Y198.700 E27.76368
G1 X101.473 Y198.881 E27.85100
G1 X100.000 Y198.942 E27.93855
G1 X98.527 Y198.881 E28.02610
G1 X97.068 Y198.700 E28.11341
G1 X95.639 Y198.400 E28.20014
G1 X94.251 Y197.983 E28.28616
G1 X92.921 Y197.456 E28.37110
G1 X91.662 Y196.823 E28.45482
G1 X90.483 Y196.090 E28.53723
G1 X89.399 Y195.265 E28.61816
G1 X88.417 Y194.357 E28.69756
G1 X87.548 Y193.375 E28.77542
G1 X86.801 Y192.328 E28.85179
G1 X86.180 Y191.228 E28.92680
G1 X85.692 Y190.084 E29.00065
G1 X85.341 Y188.908 E29.07357
G1 X85.129 Y187.709 E29.14585
G1 X85.057 Y186.484 E29.21874
G1 X85.057 Y83.516 E35.33320
G1 X85.129 Y82.291 E35.40609
G1 X85.341 Y81.092 E35.47837
G1 X85.692 Y79.916 E35.55129
G1 X86.180 Y78.772 E35.62514
G1 X86.801 Y77.672 E35.70015
G1 X87.548 Y76.625 E35.77652
G1 X88.417 Y75.643 E35.85438
G1 X89.399 Y74.735 E35.93378
G1 X90.483 Y73.910 E36.01471
G1 X91.662 Y73.177 E36.09712
G1 X92.921 Y72.544 E36.18084
G1 X94.251 Y72.017 E36.26578
G1 X95.639 Y71.600 E36.35181
G1 X97.068 Y71.300 E36.43853
G1 X98.527 Y71.119 E36.52585
G1 X99.083 Y71.096 E36.55889
G1 X99.128 Y70.736 F7800.000
G1 F1800
G1 X100.000 Y70.700 E36.61071
G1 X101.425 Y70.759 E36.69538
G1 X102.991 Y70.948 E36.78909
G1 X104.450 Y71.254 E36.87757
G1 X105.866 Y71.679 E36.96540
G1 X107.225 Y72.218 E37.05220
G1 X108.513 Y72.866 E37.13782
G1 X109.719 Y73.616 E37.22218
G1 X110.831 Y74.461 E37.30512
G1 X111.839 Y75.393 E37.38661
G1 X112.731 Y76.403 E37.46664
G1 X113.501 Y77.480 E37.54524
G1 X114.140 Y78.614 E37.62255
G1 X114.645 Y79.794 E37.69877
G1 X115.007 Y81.010 E37.77412
G1 X115.226 Y82.249 E37.84885
G1 X115.300 Y83.506 E37.92360
G1 X115.300 Y186.494 E44.03931
G1 X115.226 Y187.751 E44.11405
G1 X115.007 Y188.990 E44.18878
G1 X114.645 Y190.206 E44.26413
G1 X114.140 Y191.386 E44.34035
G1 X113.501 Y192.520 E44.41766
G1 X112.731 Y193.597 E44.49627
G1 X111.839 Y194.607 E44.57629
G1 X110.831 Y195.539 E44.65778
G1 X109.719 Y196.384 E44.74073
G1 X108.513 Y197.134 E44.82509
G1 X107.225 Y197.782 E44.91070
G1 X105.866 Y198.321 E44.99750
G1 X104.450 Y198.746 E45.08533
G1 X102.991 Y199.053 E45.17384
G1 X101.502 Y199.238 E45.26291
G1 X100.000 Y199.300 E45.35221
G1 X98.498 Y199.238 E45.44151
G1 X97.009 Y199.053 E45.53058
G1 X95.550 Y198.746 E45.61909
G1 X94.134 Y198.321 E45.70692
G1 X92.775 Y197.782 E45.79371
G1 X91.487 Y197.134 E45.87933
G1 X90.281 Y196.384 E45.96369
G1 X89.169 Y195.539 E46.04664
G1 X88.161 Y194.607 E46.12813
G1 X87.269 Y193.597 E46.20815
G1 X86.499 Y192.520 E46.28675
G1 X85.860 Y191.386 E46.36406
G1 X85.355 Y190.206 E46.44029
G1 X84.993 Y188.990 E46.51564
G1 X84.774 Y187.751 E46.59037
G1 X84.700 Y186.494 E46.66511
G1 X84.700 Y83.506 E52.78082
G1 X84.774 Y82.249 E52.85556
G1 X84.993 Y81.010 E52.93029
G1 X85.355 Y79.794 E53.00565
G1 X85.860 Y78.614 E53.08187
G1 X86.499 Y77.480 E53.15918
G1 X87.269 Y76.403 E53.23778
G1 X88.161 Y75.393 E53.31781
G1 X89.169 Y74.461 E53.39929
G1 X90.281 Y73.616 E53.48224
G1 X91.487 Y72.866 E53.56660
G1 X92.775 Y72.218 E53.65222
G1 X94.134 Y71.679 E53.73901
G1 X95.550 Y71.254 E53.82685
G1 X97.009 Y70.947 E53.91535
G1 X98.498 Y70.762 E54.00442
G1 X99.068 Y70.739 E54.03834
G1 X99.349 Y71.070 F7800.000
G1 E52.03834 F2400.00000
G92 E0
G1 X96.423 Y76.249 F7800.000
G1 E2.00000 F2400.00000
G1 F1800
G1 X96.700 Y75.706 E2.03634
G1 X97.428 Y74.977 E2.09770
G1 X97.971 Y74.701 E2.13404
G1 X101.003 Y71.669 E2.38951
G1 X101.489 Y71.690 E2.41848
G1 X98.729 Y74.450 E2.65100
G1 X99.332 Y74.353 E2.68740
G1 X101.941 Y71.745 E2.90721
G1 X102.393 Y71.799 E2.93436
G1 X99.774 Y74.419 E3.15513
G1 X100.214 Y74.485 E3.18169
G1 X102.846 Y71.853 E3.40342
G1 X103.273 Y71.933 E3.42930
G1 X100.588 Y74.618 E3.65554
G1 X100.924 Y74.789 E3.67799
G1 X103.691 Y72.021 E3.91121
G1 X104.110 Y72.109 E3.93671
G1 X101.260 Y74.960 E4.17692
G1 X101.521 Y75.204 E4.19828
G1 X104.515 Y72.211 E4.45051
G1 X104.904 Y72.328 E4.47476
G1 X101.775 Y75.458 E4.73848
G1 X102.026 Y75.713 E4.75983
G1 X105.294 Y72.445 E5.03521
G1 X105.682 Y72.564 E5.05937
G1 X102.197 Y76.049 E5.35301
G1 X102.368 Y76.385 E5.37546
G1 X106.045 Y72.708 E5.68528
G1 X106.408 Y72.852 E5.70854
G1 X102.509 Y76.750 E6.03704
G1 X102.579 Y77.187 E6.06340
G1 X106.770 Y72.996 E6.41660
G1 X107.119 Y73.154 E6.43939
G1 X102.649 Y77.624 E6.81603
G1 X102.558 Y78.221 E6.85205
G1 X107.456 Y73.324 E7.26475
G1 X107.793 Y73.494 E7.28724
G1 X102.342 Y78.944 E7.74658
G1 E5.74658 F2400.00000
G92 E0
G1 X89.070 Y76.001 F7800.000
G1 E2.00000 F2400.00000
G1 F1800
G1 X88.788 Y76.284 E2.02379
G1 X87.969 Y77.210 E2.09743
G1 X87.265 Y78.195 E2.16958
G1 X87.112 Y78.466 E2.18813
G1 X91.530 Y74.048 E2.56044
G1 X92.150 Y73.662 E2.60396
G1 X92.698 Y73.386 E2.64050
G1 X86.553 Y79.532 E3.15839
G1 X86.197 Y80.395 E3.21400
G1 X93.653 Y72.938 E3.84237
G1 X94.493 Y72.605 E3.89618
G1 X85.982 Y81.117 E4.61343
G1 X85.898 Y81.396 E4.63081
G1 X85.832 Y81.773 E4.65363
G1 X95.235 Y72.370 E5.44605
G1 X95.958 Y72.153 E5.49105
G1 X85.723 Y82.389 E6.35360
G1 X85.676 Y82.943 E6.38673
G1 X96.600 Y72.018 E7.30733
G1 X97.241 Y71.884 E7.34639
G1 X85.644 Y83.481 E8.32372
G1 X85.632 Y83.999 E8.35461
G1 X97.828 Y71.803 E9.38236
G1 X98.407 Y71.732 E9.41710
G1 X85.632 Y84.506 E10.49361
G1 X85.632 Y85.013 E10.52380
G1 X98.963 Y71.682 E11.64717
G1 X99.492 Y71.660 E11.67870
G1 X85.632 Y85.520 E12.84662
G1 X85.632 Y86.026 E12.87681
G1 X100.020 Y71.638 E14.08928
G1 X100.516 Y71.649 E14.11884
