; generated by Slic3r 1.3.1-dev on 2019-01-20 at 23:42:47

; external perimeters extrusion width = 0.44mm (5.63mm^3/s)
; perimeters extrusion width = 0.48mm (7.54mm^3/s)
; infill extrusion width = 0.48mm (10.05mm^3/s)
; solid infill extrusion width = 0.48mm (6.28mm^3/s)
; top infill extrusion width = 0.48mm (6.28mm^3/s)

M107
M190 S60 ; set bed temperature and wait for it to be reached
M104 S205 ; set temperature
G28 ; home all axes
G1 Z5 F5000 ; lift nozzle

; Filament gcode

M109 S205 ; set temperature and wait for it to be reached
G21 ; set units to millimeters
G90 ; use absolute coordinates
M82 ; use absolute distances for extrusion
G92 E0
G92 E0
G1 Z0.200 F7800.000
G1 E-2.00000 F2400.00000
G92 E0
G1 X85.346 Y74.717 F7800.000
G1 E2.00000 F2400.00000
G1 F1800
G1 X86.351 Y73.586 E2.08986
G1 X87.440 Y72.577 E2.17799
G1 X88.922 Y71.449 E2.28860
G1 X90.330 Y70.585 E2.38668
G1 X91.634 Y69.929 E2.47336
G1 X93.391 Y69.232 E2.58560
G1 X95.016 Y68.753 E2.68624
G1 X96.683 Y68.411 E2.78729
G1 X98.383 Y68.208 E2.88897
G1 X99.902 Y68.145 E2.97925
G1 X101.810 Y68.224 E3.09261
G1 X103.508 Y68.443 E3.19429
G1 X104.984 Y68.753 E3.28385
G1 X106.801 Y69.299 E3.39649
G1 X108.176 Y69.844 E3.48432
G1 X109.670 Y70.585 E3.58342
G1 X111.259 Y71.574 E3.69454
G1 X112.560 Y72.577 E3.79210
G1 X113.649 Y73.586 E3.88023
G1 X114.806 Y74.907 E3.98450
G1 X115.588 Y76.001 E4.06436
G1 X116.373 Y77.368 E4.15795
G1 X117.001 Y78.800 E4.25082
G1 X117.092 Y79.052 E4.26675
G1 X117.461 Y80.291 E4.34348
G1 X117.523 Y80.554 E4.35953
G1 X117.746 Y81.817 E4.43569
G1 X117.778 Y82.087 E4.45188
G1 X117.857 Y83.500 E4.53589
G1 X117.857 Y186.500 E10.65229
G1 X117.778 Y187.913 E10.73630
G1 X117.746 Y188.184 E10.75255
G1 X117.523 Y189.446 E10.82865
G1 X117.461 Y189.709 E10.84468
G1 X117.092 Y190.947 E10.92142
G1 X117.001 Y191.200 E10.93736
G1 X116.373 Y192.632 E11.03021
G1 X115.588 Y193.999 E11.12382
G1 X114.806 Y195.093 E11.20368
G1 X113.582 Y196.478 E11.31341
G1 X112.387 Y197.568 E11.40946
G1 X111.078 Y198.551 E11.50668
G1 X109.853 Y199.312 E11.59234
G1 X108.366 Y200.071 E11.69144
G1 X106.609 Y200.768 E11.80368
G1 X104.986 Y201.246 E11.90416
G1 X103.315 Y201.589 E12.00550
G1 X101.617 Y201.792 E12.10705
G1 X99.900 Y201.855 E12.20903
G1 X98.192 Y201.776 E12.31059
G1 X96.685 Y201.589 E12.40075
G1 X95.016 Y201.247 E12.50195
G1 X93.391 Y200.768 E12.60257
G1 X91.824 Y200.156 E12.70240
G1 X90.328 Y199.414 E12.80161
G1 X88.922 Y198.551 E12.89957
G1 X87.613 Y197.568 E12.99675
G1 X86.351 Y196.414 E13.09832
G1 X85.346 Y195.283 E13.18816
G1 X84.412 Y193.998 E13.28247
G1 X83.626 Y192.631 E13.37617
G1 X82.999 Y191.199 E13.46895
G1 X82.908 Y190.947 E13.48486
G1 X82.539 Y189.709 E13.56161
G1 X82.477 Y189.448 E13.57752
G1 X82.254 Y188.184 E13.65373
G1 X82.222 Y187.913 E13.66997
G1 X82.143 Y186.500 E13.75398
G1 X82.143 Y83.500 E19.87039
G1 X82.222 Y82.087 E19.95440
G1 X82.254 Y81.816 E19.97062
G1 X82.477 Y80.554 E20.04674
G1 X82.539 Y80.291 E20.06280
G1 X82.908 Y79.053 E20.13952
G1 X82.999 Y78.800 E20.15546
G1 X83.627 Y77.367 E20.24833
G1 X84.277 Y76.214 E20.32693
G1 X84.412 Y76.001 E20.34193
G1 X85.308 Y74.764 E20.43265
G1 E18.43265 F2400.00000
G92 E0
G1 X114.586 Y145.217 F7800.000
G1 E2.00000 F2400.00000
G1 F1800
G1 X114.586 Y186.473 E4.44989
G1 X114.516 Y187.667 E4.52092
G1 X114.311 Y188.825 E4.59075
G1 X113.972 Y189.963 E4.66124
G1 X113.499 Y191.070 E4.73272
G1 X112.898 Y192.136 E4.80542
G1 X112.172 Y193.152 E4.87956
G1 X111.328 Y194.107 E4.95526
G1 X110.372 Y194.991 E5.03257
G1 X109.314 Y195.795 E5.11149
G1 X108.163 Y196.511 E5.19194
G1 X106.932 Y197.130 E5.27376
G1 X105.632 Y197.646 E5.35685
G1 X104.273 Y198.053 E5.44107
G1 X102.873 Y198.348 E5.52601
G1 X101.444 Y198.525 E5.61157
G1 X100.000 Y198.585 E5.69737
G1 X98.556 Y198.525 E5.78317
G1 X97.127 Y198.348 E5.86872
G1 X95.727 Y198.053 E5.95367
G1 X94.368 Y197.646 E6.03789
G1 X93.068 Y197.130 E6.12098
G1 X91.837 Y196.511 E6.20279
G1 X90.685 Y195.794 E6.28335
G1 X89.628 Y194.991 E6.36217
G1 X88.672 Y194.107 E6.43948
G1 X87.828 Y193.152 E6.51518
G1 X87.102 Y192.136 E6.58931
G1 X86.501 Y191.070 E6.66202
G1 X86.028 Y189.963 E6.73349
G1 X85.689 Y188.825 E6.80399
G1 X85.484 Y187.667 E6.87382
G1 X85.414 Y186.473 E6.94485
G1 X85.414 Y83.527 E13.05806
G1 X85.484 Y82.333 E13.12910
G1 X85.689 Y81.175 E13.19892
G1 X86.028 Y80.037 E13.26942
G1 X86.501 Y78.930 E13.34089
G1 X87.102 Y77.864 E13.41360
G1 X87.828 Y76.848 E13.48774
G1 X88.672 Y75.893 E13.56343
G1 X89.628 Y75.009 E13.64074
G1 X90.686 Y74.205 E13.71966
G1 X91.837 Y73.489 E13.80012
G1 X93.068 Y72.870 E13.88194
G1 X94.368 Y72.354 E13.96503
G1 X95.727 Y71.947 E14.04925
G1 X97.127 Y71.652 E14.13419
G1 X98.556 Y71.475 E14.21975
G1 X100.000 Y71.415 E14.30554
G1 X101.442 Y71.475 E14.39124
G1 X102.873 Y71.652 E14.47690
G1 X104.273 Y71.947 E14.56184
G1 X105.632 Y72.354 E14.64606
G1 X106.932 Y72.870 E14.72915
G1 X108.163 Y73.489 E14.81097
G1 X109.314 Y74.205 E14.89143
G1 X110.372 Y75.009 E14.97034
G1 X111.328 Y75.893 E15.04766
G1 X112.172 Y76.848 E15.12335
G1 X112.898 Y77.864 E15.19749
G1 X113.499 Y78.930 E15.27019
G1 X113.972 Y80.037 E15.34167
G1 X114.311 Y81.175 E15.41216
G1 X114.516 Y82.333 E15.48199
G1 X114.586 Y83.527 E15.55303
G1 X114.586 Y145.157 E19.21279
G1 X114.943 Y145.217 F7800.000
G1 F1800
G1 X114.943 Y186.484 E21.66330
G1 X114.871 Y187.709 E21.73619
G1 X114.659 Y188.908 E21.80847
G1 X114.308 Y190.084 E21.88139
G1 X113.820 Y191.228 E21.95524
G1 X113.199 Y192.328 E22.03025
G1 X112.452 Y193.375 E22.10662
G1 X111.583 Y194.357 E22.18448
G1 X110.601 Y195.265 E22.26388
G1 X109.517 Y196.090 E22.34481
G1 X108.338 Y196.823 E22.42722
G1 X107.079 Y197.456 E22.51094
G1 X105.749 Y197.983 E22.59588
G1 X104.361 Y198.400 E22.68190
G1 X102.932 Y198.700 E22.76863
G1 X101.473 Y198.881 E22.85594
G1 X100.000 Y198.942 E22.94349
G1 X98.527 Y198.881 E23.03104
G1 X97.068 Y198.700 E23.11835
G1 X95.639 Y198.400 E23.20508
G1 X94.251 Y197.983 E23.29111
G1 X92.921 Y197.456 E23.37605
G1 X91.662 Y196.823 E23.45976
G1 X90.482 Y196.089 E23.54227
G1 X89.399 Y195.265 E23.62311
G1 X88.417 Y194.357 E23.70251
G1 X87.548 Y193.375 E23.78037
G1 X86.801 Y192.328 E23.85674
G1 X86.180 Y191.228 E23.93174
G1 X85.692 Y190.084 E24.00559
G1 X85.341 Y188.908 E24.07852
G1 X85.129 Y187.709 E24.15079
G1 X85.057 Y186.484 E24.22368
G1 X85.057 Y83.516 E30.33814
G1 X85.129 Y82.291 E30.41103
G1 X85.341 Y81.092 E30.48331
G1 X85.692 Y79.916 E30.55624
G1 X86.180 Y78.772 E30.63008
G1 X86.801 Y77.672 E30.70509
G1 X87.548 Y76.625 E30.78146
G1 X88.417 Y75.643 E30.85932
G1 X89.399 Y74.735 E30.93872
G1 X90.483 Y73.910 E31.01965
G1 X91.662 Y73.177 E31.10206
G1 X92.921 Y72.544 E31.18578
G1 X94.251 Y72.017 E31.27072
G1 X95.639 Y71.600 E31.35675
G1 X97.068 Y71.300 E31.44347
G1 X98.527 Y71.119 E31.53079
G1 X100.000 Y71.058 E31.61834
G1 X101.471 Y71.119 E31.70578
G1 X102.932 Y71.300 E31.79320
G1 X104.361 Y71.600 E31.87992
G1 X105.749 Y72.017 E31.96595
G1 X107.079 Y72.544 E32.05089
G1 X108.338 Y73.177 E32.13461
G1 X109.517 Y73.910 E32.21702
G1 X110.601 Y74.735 E32.29795
G1 X111.583 Y75.643 E32.37735
G1 X112.452 Y76.625 E32.45521
G1 X113.199 Y77.672 E32.53158
G1 X113.820 Y78.772 E32.60659
G1 X114.308 Y79.916 E32.68044
G1 X114.659 Y81.092 E32.75336
G1 X114.871 Y82.291 E32.82564
G1 X114.943 Y83.516 E32.89853
G1 X114.943 Y145.157 E36.55891
G1 X115.300 Y145.217 F7800.000
G1 F1800
G1 X115.300 Y186.494 E39.01005
G1 X115.226 Y187.751 E39.08479
G1 X115.007 Y188.990 E39.15952
G1 X114.645 Y190.206 E39.23488
G1 X114.140 Y191.386 E39.31110
G1 X113.501 Y192.520 E39.38841
G1 X112.731 Y193.597 E39.46701
G1 X111.839 Y194.607 E39.54703
G1 X110.831 Y195.539 E39.62852
G1 X109.719 Y196.384 E39.71147
G1 X108.513 Y197.134 E39.79583
G1 X107.225 Y197.782 E39.88145
G1 X105.866 Y198.321 E39.96824
G1 X104.450 Y198.746 E40.05607
G1 X102.991 Y199.053 E40.14458
G1 X101.502 Y199.238 E40.23365
G1 X100.000 Y199.300 E40.32295
G1 X98.498 Y199.238 E40.41225
G1 X97.009 Y199.053 E40.50132
G1 X95.550 Y198.746 E40.58983
G1 X94.134 Y198.321 E40.67766
G1 X92.775 Y197.782 E40.76446
G1 X91.487 Y197.134 E40.85007
G1 X90.279 Y196.383 E40.93454
G1 X89.169 Y195.539 E41.01738
G1 X88.161 Y194.607 E41.09887
G1 X87.269 Y193.597 E41.17889
G1 X86.499 Y192.520 E41.25750
G1 X85.860 Y191.386 E41.33481
G1 X85.355 Y190.206 E41.41103
G1 X84.993 Y188.990 E41.48638
G1 X84.774 Y187.751 E41.56111
G1 X84.700 Y186.494 E41.63585
G1 X84.700 Y83.506 E47.75156
G1 X84.774 Y82.249 E47.82631
G1 X84.993 Y81.010 E47.90104
G1 X85.355 Y79.794 E47.97639
G1 X85.860 Y78.614 E48.05261
G1 X86.499 Y77.480 E48.12992
G1 X87.269 Y76.403 E48.20852
G1 X88.161 Y75.393 E48.28855
G1 X89.169 Y74.461 E48.37004
G1 X90.281 Y73.616 E48.45298
G1 X91.487 Y72.866 E48.53734
G1 X92.775 Y72.218 E48.62296
G1 X94.134 Y71.679 E48.70976
G1 X95.550 Y71.254 E48.79759
G1 X97.009 Y70.947 E48.88609
G1 X98.498 Y70.762 E48.97517
G1 X100.000 Y70.700 E49.06447
G1 X101.501 Y70.762 E49.15366
G1 X102.991 Y70.947 E49.24284
G1 X104.450 Y71.254 E49.33134
G1 X105.866 Y71.679 E49.41918
G1 X107.225 Y72.218 E49.50597
G1 X108.513 Y72.866 E49.59159
G1 X109.719 Y73.616 E49.67595
G1 X110.831 Y74.461 E49.75890
G1 X111.839 Y75.393 E49.84038
G1 X112.731 Y76.403 E49.92041
G1 X113.501 Y77.480 E49.99901
G1 X114.140 Y78.614 E50.07632
G1 X114.645 Y79.794 E50.15254
G1 X115.007 Y81.010 E50.22789
G1 X115.226 Y82.249 E50.30262
G1 X115.300 Y83.506 E50.37737
G1 X115.300 Y145.157 E54.03838
G1 X114.954 Y145.417 F7800.000
G1 E52.03838 F2400.00000
G92 E0
G1 X110.931 Y193.998 F7800.000
G1 E2.00000 F2400.00000
G1 F1800
G1 X111.212 Y193.717 E2.02365
G1 X112.031 Y192.790 E2.09734
G1 X112.735 Y191.805 E2.16949
G1 X112.888 Y191.534 E2.18803
G1 X108.470 Y195.952 E2.56032
G1 X107.850 Y196.338 E2.60386
G1 X107.302 Y196.614 E2.64039
G1 X113.447 Y190.468 E3.15826
G1 X113.803 Y189.605 E3.21387
G1 X106.347 Y197.062 E3.84223
G1 X105.507 Y197.395 E3.89604
G1 X114.018 Y188.884 E4.61328
G1 X114.102 Y188.604 E4.63066
G1 X114.168 Y188.227 E4.65348
G1 X104.765 Y197.630 E5.44589
G1 X104.042 Y197.847 E5.49089
G1 X114.277 Y187.611 E6.35342
G1 X114.324 Y187.057 E6.38656
G1 X103.400 Y197.982 E7.30715
G1 X102.759 Y198.116 E7.34621
G1 X114.356 Y186.519 E8.32353
G1 X114.368 Y186.001 E8.35442
G1 X102.172 Y198.197 E9.38216
G1 X101.593 Y198.268 E9.41690
G1 X114.368 Y185.494 E10.49340
G1 X114.368 Y184.987 E10.52360
G1 X101.037 Y198.318 E11.64696
G1 X100.508 Y198.340 E11.67849
G1 X114.368 Y184.480 E12.84641
G1 X114.368 Y183.974 E12.87660
G1 X99.980 Y198.362 E14.08906
G1 X99.484 Y198.351 E14.11863
G1 X114.368 Y183.467 E15.37289
G1 X114.368 Y182.960 E15.40308
G1 X98.997 Y198.331 E16.69834
G1 X98.511 Y198.311 E16.72736
G1 X114.368 Y182.454 E18.06363
G1 X114.368 Y181.947 E18.09382
G1 X98.055 Y198.259 E19.46846
G1 X97.605 Y198.203 E19.49553
G1 X114.368 Y181.440 E20.90815
G1 X114.368 Y180.933 E20.93835
G1 X97.154 Y198.147 E22.38895
G1 X96.727 Y198.067 E22.41480
G1 X114.368 Y180.427 E23.90134
G1 X114.368 Y179.920 E23.93153
G1 X96.309 Y197.979 E25.45335
G1 X95.890 Y197.891 E25.47885
G1 X114.368 Y179.413 E27.03596
G1 X114.368 Y178.906 E27.06615
G1 X95.485 Y197.789 E28.65735
G1 X95.096 Y197.672 E28.68160
G1 X114.368 Y178.400 E30.30564
G1 X114.368 Y177.893 E30.33584
G1 X94.706 Y197.555 E31.99273
G1 X94.318 Y197.436 E32.01689
G1 X114.368 Y177.386 E33.70645
G1 X114.368 Y176.880 E33.73665
G1 X93.955 Y197.292 E35.45679
G1 X93.592 Y197.148 E35.48005
G1 X114.368 Y176.373 E37.23077
G1 X114.368 Y175.866 E37.26097
G1 X93.230 Y197.004 E39.04227
G1 X92.881 Y196.846 E39.06506
G1 X114.368 Y175.359 E40.87570
G1 X114.368 Y174.853 E40.90589
G1 X92.544 Y196.676 E42.74494
G1 X92.207 Y196.506 E42.76743
G1 X114.368 Y174.346 E44.63488
G1 X114.368 Y173.839 E44.66508
G1 X91.870 Y196.337 E46.56093
G1 X91.558 Y196.142 E46.58285
G1 X114.368 Y173.332 E48.50502
G1 X114.368 Y172.826 E48.53522
G1 X91.245 Y195.948 E50.48372
G1 X90.933 Y195.754 E50.50564
G1 X114.368 Y172.319 E52.48047
G1 X114.368 Y171.812 E52.51066
G1 X90.631 Y195.549 E54.51096
G1 X90.343 Y195.330 E54.53251
G1 X114.368 Y171.305 E56.55707
G1 X114.368 Y170.799 E56.58727
G1 X90.055 Y195.111 E58.63608
G1 X89.767 Y194.892 E58.65763
G1 X114.368 Y170.292 E60.73070
G1 X114.368 Y169.785 E60.76090
G1 X89.500 Y194.653 E62.85650
G1 X89.237 Y194.410 E62.87787
G1 X114.368 Y169.279 E64.99566
G1 X114.368 Y168.772 E65.02585
G1 X88.973 Y194.166 E67.16583
G1 X88.718 Y193.915 E67.18718
G1 X114.368 Y168.265 E69.34870
G1 X114.368 Y167.758 E69.37889
G1 X88.480 Y193.646 E71.56045
G1 X88.242 Y193.377 E71.58184
G1 X114.368 Y167.252 E73.78343
G1 X114.368 Y166.745 E73.81362
G1 X88.004 Y193.108 E76.03524
G1 X87.789 Y192.817 E76.05684
G1 X114.368 Y166.238 E78.29659
G1 X114.368 Y165.731 E78.32679
G1 X87.578 Y192.521 E80.58434
G1 X87.367 Y192.226 E80.60599
G1 X114.368 Y165.225 E82.88134
G1 X114.368 Y164.718 E82.91154
G1 X87.170 Y191.915 E85.20345
G1 X86.988 Y191.591 E85.22561
G1 X114.368 Y164.211 E87.53292
G1 X114.368 Y163.705 E87.56311
G1 X86.805 Y191.267 E89.88581
G1 X86.633 Y190.933 E89.90822
G1 X114.368 Y163.198 E92.24545
G1 X114.368 Y162.691 E92.27565
G1 X86.481 Y190.578 E94.62565
G1 X86.329 Y190.223 E94.64866
G1 X114.368 Y162.184 E97.01145
G1 X114.368 Y161.678 E97.04165
G1 X86.189 Y189.856 E99.41627
G1 X86.072 Y189.466 E99.44055
G1 X114.368 Y161.171 E101.82498
G1 X114.368 Y160.664 E101.85517
G1 X85.956 Y189.076 E104.24941
G1 X85.898 Y188.882 E104.26147
G1 X85.860 Y188.665 E104.27458
G1 X114.368 Y160.157 E106.67692
G1 X114.368 Y159.651 E106.70711
G1 X85.784 Y188.234 E109.11586
G1 X85.708 Y187.804 E109.14192
G1 X114.368 Y159.144 E111.55708
G1 X114.368 Y158.637 E111.58727
G1 X85.675 Y187.330 E114.00518
G1 X85.647 Y186.851 E114.03374
G1 X114.368 Y158.130 E116.45402
G1 X114.368 Y157.624 E116.48422
G1 X85.632 Y186.359 E118.90573
G1 X85.632 Y185.852 E118.93593
G1 X114.368 Y157.117 E121.35744
G1 X114.368 Y156.610 E121.38764
G1 X85.632 Y185.346 E123.80915
G1 X85.632 Y184.839 E123.83935
G1 X114.368 Y156.104 E126.26087
G1 X114.368 Y155.597 E126.29106
G1 X85.632 Y184.332 E128.71258
G1 X85.632 Y183.825 E128.74277
G1 X114.368 Y155.090 E131.16429
G1 X114.368 Y154.583 E131.19448
G1 X85.632 Y183.319 E133.61600
G1 X85.632 Y182.812 E133.64619
G1 X114.368 Y154.077 E136.06771
G1 X114.368 Y153.570 E136.09791
G1 X85.632 Y182.305 E138.51942
G1 X85.632 Y181.798 E138.54962
G1 X114.368 Y153.063 E140.97113
G1 X114.368 Y152.556 E141.00133
G1 X85.632 Y181.292 E143.42284
G1 X85.632 Y180.785 E143.45304
G1 X114.368 Y152.050 E145.87456
G1 X114.368 Y151.543 E145.90475
G1 X85.632 Y180.278 E148.32627
G1 X85.632 Y179.772 E148.35646
G1 X114.368 Y151.036 E150.77798
G1 X114.368 Y150.530 E150.80817
G1 X85.632 Y179.265 E153.22969
G1 X85.632 Y178.758 E153.25988
G1 X114.368 Y150.023 E155.68140
G1 X114.368 Y149.516 E155.71160
G1 X85.632 Y178.251 E158.13311
G1 X85.632 Y177.745 E158.16331
G1 X114.368 Y149.009 E160.58482
G1 X114.368 Y148.503 E160.61502
G1 X85.632 Y177.238 E163.03653
G1 X85.632 Y176.731 E163.06673
G1 X114.368 Y147.996 E165.48825
G1 X114.368 Y147.489 E165.51844
G1 X85.632 Y176.224 E167.93996
G1 X85.632 Y175.718 E167.97015
G1 X114.368 Y146.982 E170.39167
G1 X114.368 Y146.476 E170.42186
G1 X85.632 Y175.211 E172.84338
G1 X85.632 Y174.704 E172.87357
G1 X114.368 Y145.969 E175.29509
G1 X114.368 Y145.462 E175.32529
G1 X85.632 Y174.197 E177.74680
G1 X85.632 Y173.691 E177.77700
G1 X114.368 Y144.955 E180.19851
G1 X114.368 Y144.449 E180.22871
G1 X85.632 Y173.184 E182.65023
G1 X85.632 Y172.677 E182.68042
G1 X114.368 Y143.942 E185.10194
G1 X114.368 Y143.435 E185.13213
G1 X85.632 Y172.171 E187.55365
G1 X85.632 Y171.664 E187.58384
G1 X114.368 Y142.929 E190.00536
G1 X114.368 Y142.422 E190.03555
G1 X85.632 Y171.157 E192.45707
G1 X85.632 Y170.650 E192.48727
G1 X114.368 Y141.915 E194.90878
G1 X114.368 Y141.408 E194.93898
G1 X85.632 Y170.144 E197.36049
G1 X85.632 Y169.637 E197.39069
G1 X114.368 Y140.902 E199.81221
G1 X114.368 Y140.395 E199.84240
G1 X85.632 Y169.130 E202.26392
G1 X85.632 Y168.623 E202.29411
G1 X114.368 Y139.888 E204.71563
G1 X114.368 Y139.381 E204.74582
G1 X85.632 Y168.117 E207.16734
G1 X85.632 Y167.610 E207.19753
G1 X114.368 Y138.875 E209.61905
G1 X114.368 Y138.368 E209.64925
G1 X85.632 Y167.103 E212.07076
G1 X85.632 Y166.597 E212.10096
