; generated by Slic3r 1.3.1-dev on 2019-01-24 at 10:16:17

; external perimeters extrusion width = 0.44mm (5.63mm^3/s)
; perimeters extrusion width = 0.48mm (7.54mm^3/s)
; infill extrusion width = 0.48mm (10.05mm^3/s)
; solid infill extrusion width = 0.48mm (6.28mm^3/s)
; top infill extrusion width = 0.48mm (6.28mm^3/s)

M107
M190 S60 ; set bed temperature and wait for it to be reached
M104 S205 ; set temperature
G28 ; home all axes
G1 Z5 F5000 ; lift nozzle

; Filament gcode

M109 S205 ; set temperature and wait for it to be reached
G21 ; set units to millimeters
G90 ; use absolute coordinates
M82 ; use absolute distances for extrusion
G92 E0
G92 E0
G1 Z0.200 F7800.000
G1 E-2.00000 F2400.00000
G92 E0
G1 X33.318 Y111.977 F7800.000
G1 E2.00000 F2400.00000
G1 F1800
G1 X34.294 Y111.763 E2.05933
G1 X35.080 Y111.670 E2.10635
G1 X35.771 Y111.643 E2.14741
G1 X163.727 Y111.643 E9.74573
G1 X164.459 Y111.670 E9.78924
G1 X165.280 Y111.760 E9.83828
G1 X166.086 Y111.915 E9.88700
G1 X166.878 Y112.136 E9.93585
G1 X167.828 Y112.498 E9.99624
G1 X168.378 Y112.764 E10.03250
G1 X169.072 Y113.167 E10.08013
G1 X169.901 Y113.772 E10.14111
G1 X170.335 Y114.157 E10.17552
G1 X170.884 Y114.736 E10.22293
G1 X171.372 Y115.370 E10.27045
G1 X171.511 Y115.581 E10.28546
G1 X171.789 Y116.054 E10.31802
G1 X172.123 Y116.769 E10.36486
G1 X172.375 Y117.526 E10.41230
G1 X172.442 Y117.797 E10.42885
G1 X172.572 Y118.593 E10.47676
G1 X172.607 Y119.250 E10.51581
G1 X172.607 Y156.000 E12.69813
G1 X172.216 Y157.301 E12.77880
G1 X171.171 Y158.170 E12.85948
G1 X170.250 Y158.357 E12.91529
G1 X29.750 Y158.357 E21.25855
G1 X28.449 Y157.966 E21.33922
G1 X27.580 Y156.921 E21.41990
G1 X27.393 Y156.000 E21.47571
G1 X27.393 Y119.250 E23.65802
G1 X27.426 Y118.602 E23.69653
G1 X27.541 Y117.832 E23.74277
G1 X27.600 Y117.576 E23.75840
G1 X27.829 Y116.829 E23.80478
G1 X28.029 Y116.344 E23.83593
G1 X28.387 Y115.655 E23.88205
G1 X28.519 Y115.439 E23.89705
G1 X28.970 Y114.805 E23.94327
G1 X29.322 Y114.391 E23.97554
G1 X30.055 Y113.686 E24.03595
G1 X30.673 Y113.212 E24.08220
G1 X31.148 Y112.905 E24.11575
G1 X32.037 Y112.439 E24.17538
G1 X32.571 Y112.220 E24.20968
G1 X33.261 Y111.995 E24.25275
G1 E22.25275 F2400.00000
G92 E0
G1 X30.664 Y155.086 F7800.000
G1 E2.00000 F2400.00000
G1 F1800
G1 X30.664 Y119.276 E4.12649
G1 X30.689 Y118.838 E4.15253
G1 X30.758 Y118.429 E4.17714
G1 X30.873 Y118.029 E4.20186
G1 X31.036 Y117.634 E4.22727
G1 X31.241 Y117.253 E4.25297
G1 X31.491 Y116.890 E4.27912
G1 X31.784 Y116.546 E4.30593
G1 X32.115 Y116.227 E4.33324
G1 X32.484 Y115.936 E4.36113
G1 X32.888 Y115.676 E4.38968
G1 X33.320 Y115.449 E4.41867
G1 X33.778 Y115.261 E4.44809
G1 X34.258 Y115.110 E4.47793
G1 X34.752 Y115.002 E4.50800
G1 X35.260 Y114.937 E4.53836
G1 X35.771 Y114.915 E4.56878
G1 X36.281 Y114.937 E4.59908
G1 X36.791 Y115.002 E4.62958
G1 X37.285 Y115.110 E4.65963
G1 X37.765 Y115.261 E4.68947
G1 X38.223 Y115.449 E4.71889
G1 X38.655 Y115.676 E4.74788
G1 X39.059 Y115.936 E4.77643
G1 X39.428 Y116.227 E4.80432
G1 X39.759 Y116.546 E4.83164
G1 X40.052 Y116.890 E4.85844
G1 X40.301 Y117.253 E4.88460
G1 X40.507 Y117.634 E4.91030
G1 X40.669 Y118.028 E4.93559
G1 X40.785 Y118.429 E4.96042
G1 X40.854 Y118.838 E4.98503
G1 X40.879 Y119.274 E5.01097
G1 X40.877 Y119.565 E5.02824
G1 X39.979 Y120.237 E5.09488
G1 X38.881 Y121.252 E5.18364
G1 X37.874 Y122.392 E5.27401
G1 X36.963 Y123.645 E5.36598
G1 X36.158 Y125.000 E5.45957
G1 X35.465 Y126.441 E5.55451
G1 X34.891 Y127.957 E5.65078
G1 X34.439 Y129.534 E5.74818
G1 X34.113 Y131.155 E5.84641
G1 X33.916 Y132.808 E5.94522
G1 X33.850 Y134.475 E6.04431
G1 X33.916 Y136.142 E6.14340
G1 X34.113 Y137.795 E6.24221
G1 X34.439 Y139.416 E6.34043
G1 X34.891 Y140.993 E6.43784
G1 X35.465 Y142.509 E6.53410
G1 X36.158 Y143.950 E6.62904
G1 X36.963 Y145.305 E6.72263
G1 X37.874 Y146.558 E6.81460
G1 X38.881 Y147.698 E6.90497
G1 X39.979 Y148.713 E6.99374
G1 X41.155 Y149.593 E7.08095
G1 X42.399 Y150.327 E7.16675
G1 X43.701 Y150.908 E7.25141
G1 X45.042 Y151.327 E7.33483
G1 X46.422 Y151.582 E7.41816
G1 X47.784 Y151.666 E7.49921
G1 X151.212 Y151.666 E13.64104
G1 X152.574 Y151.582 E13.72207
G1 X153.949 Y151.328 E13.80510
G1 X155.295 Y150.908 E13.88883
G1 X156.597 Y150.327 E13.97349
G1 X157.842 Y149.593 E14.05930
G1 X159.018 Y148.713 E14.14651
G1 X160.115 Y147.698 E14.23528
G1 X161.123 Y146.558 E14.32564
G1 X162.033 Y145.305 E14.41761
G1 X162.838 Y143.950 E14.51120
G1 X163.531 Y142.509 E14.60614
G1 X164.105 Y140.993 E14.70241
G1 X164.558 Y139.416 E14.79981
G1 X164.883 Y137.794 E14.89806
G1 X165.079 Y136.142 E14.99684
G1 X165.146 Y134.475 E15.09593
G1 X165.079 Y132.808 E15.19503
G1 X164.883 Y131.156 E15.29381
G1 X164.558 Y129.534 E15.39205
G1 X164.105 Y127.957 E15.48946
G1 X163.531 Y126.441 E15.58573
G1 X162.838 Y125.000 E15.68066
G1 X162.033 Y123.645 E15.77425
G1 X161.123 Y122.392 E15.86623
G1 X160.115 Y121.252 E15.95659
G1 X159.018 Y120.237 E16.04536
G1 X158.119 Y119.565 E16.11200
G1 X158.144 Y118.847 E16.15467
G1 X158.218 Y118.446 E16.17886
G1 X158.342 Y118.049 E16.20355
G1 X158.515 Y117.660 E16.22884
G1 X158.738 Y117.281 E16.25497
G1 X159.008 Y116.917 E16.28187
G1 X159.325 Y116.573 E16.30968
G1 X159.688 Y116.250 E16.33854
G1 X160.092 Y115.955 E16.36822
G1 X160.537 Y115.691 E16.39894
G1 X161.014 Y115.460 E16.43040
G1 X161.520 Y115.268 E16.46258
G1 X162.051 Y115.114 E16.49536
G1 X162.599 Y115.004 E16.52857
G1 X163.160 Y114.937 E16.56212
G1 X163.727 Y114.915 E16.59581
G1 X164.291 Y114.937 E16.62936
G1 X164.855 Y115.004 E16.66306
G1 X165.403 Y115.114 E16.69626
G1 X165.933 Y115.268 E16.72904
G1 X166.440 Y115.460 E16.76122
G1 X166.917 Y115.691 E16.79268
G1 X167.361 Y115.955 E16.82339
G1 X167.765 Y116.250 E16.85308
G1 X168.129 Y116.573 E16.88194
G1 X168.446 Y116.917 E16.90975
G1 X168.716 Y117.281 E16.93665
G1 X168.939 Y117.660 E16.96278
G1 X169.112 Y118.049 E16.98807
G1 X169.236 Y118.446 E17.01276
G1 X169.310 Y118.847 E17.03695
G1 X169.336 Y119.278 E17.06259
G1 X169.336 Y155.086 E19.18897
G1 X30.724 Y155.086 E27.42009
G1 X30.307 Y155.443 F7800.000
G1 F1800
G1 X30.307 Y119.266 E29.56838
G1 X30.334 Y118.798 E29.59621
G1 X30.409 Y118.350 E29.62318
G1 X30.535 Y117.912 E29.65026
G1 X30.713 Y117.480 E29.67796
G1 X30.936 Y117.066 E29.70591
G1 X31.207 Y116.672 E29.73430
G1 X31.523 Y116.301 E29.76323
G1 X31.880 Y115.958 E29.79265
G1 X32.276 Y115.646 E29.82260
G1 X32.708 Y115.367 E29.85310
G1 X33.169 Y115.125 E29.88404
G1 X33.657 Y114.924 E29.91536
G1 X34.166 Y114.765 E29.94706
G1 X34.691 Y114.650 E29.97898
G1 X35.229 Y114.581 E30.01117
G1 X35.771 Y114.558 E30.04341
G1 X36.312 Y114.581 E30.07552
G1 X36.851 Y114.650 E30.10784
G1 X37.377 Y114.765 E30.13976
G1 X37.886 Y114.924 E30.17146
G1 X38.374 Y115.125 E30.20278
G1 X38.835 Y115.367 E30.23372
G1 X39.267 Y115.646 E30.26422
G1 X39.663 Y115.958 E30.29417
G1 X40.020 Y116.301 E30.32359
G1 X40.336 Y116.672 E30.35252
G1 X40.606 Y117.066 E30.38091
G1 X40.830 Y117.480 E30.40886
G1 X41.007 Y117.910 E30.43644
G1 X41.133 Y118.350 E30.46364
G1 X41.209 Y118.798 E30.49061
G1 X41.236 Y119.265 E30.51837
G1 X41.234 Y119.744 E30.54685
G1 X40.208 Y120.512 E30.62295
G1 X39.137 Y121.502 E30.70955
G1 X38.152 Y122.616 E30.79783
G1 X37.262 Y123.842 E30.88781
G1 X36.473 Y125.169 E30.97949
G1 X35.794 Y126.582 E31.07258
G1 X35.230 Y128.070 E31.16706
G1 X34.786 Y129.618 E31.26272
G1 X34.466 Y131.212 E31.35925
G1 X34.272 Y132.836 E31.45638
G1 X34.207 Y134.475 E31.55379
G1 X34.272 Y136.114 E31.65119
G1 X34.466 Y137.738 E31.74832
G1 X34.786 Y139.332 E31.84485
G1 X35.230 Y140.880 E31.94051
G1 X35.794 Y142.368 E32.03499
G1 X36.473 Y143.781 E32.12808
G1 X37.262 Y145.108 E32.21976
G1 X38.152 Y146.334 E32.30974
G1 X39.137 Y147.448 E32.39802
G1 X40.208 Y148.438 E32.48462
G1 X41.353 Y149.295 E32.56956
G1 X42.564 Y150.009 E32.65301
G1 X43.828 Y150.574 E32.73523
G1 X45.128 Y150.979 E32.81612
G1 X46.466 Y151.227 E32.89690
G1 X47.795 Y151.309 E32.97600
G1 X151.201 Y151.309 E39.11653
G1 X152.531 Y151.227 E39.19562
G1 X153.863 Y150.981 E39.27609
G1 X155.169 Y150.574 E39.35731
G1 X156.433 Y150.009 E39.43952
G1 X157.643 Y149.295 E39.52297
G1 X158.789 Y148.438 E39.60792
G1 X159.859 Y147.448 E39.69451
G1 X160.844 Y146.334 E39.78279
G1 X161.735 Y145.108 E39.87277
G1 X162.523 Y143.781 E39.96445
G1 X163.203 Y142.368 E40.05754
G1 X163.766 Y140.880 E40.15202
G1 X164.210 Y139.332 E40.24769
G1 X164.530 Y137.738 E40.34422
G1 X164.723 Y136.114 E40.44133
G1 X164.789 Y134.475 E40.53874
G1 X164.723 Y132.836 E40.63615
G1 X164.530 Y131.212 E40.73326
G1 X164.210 Y129.618 E40.82980
G1 X163.766 Y128.070 E40.92546
G1 X163.203 Y126.582 E41.01994
G1 X162.523 Y125.169 E41.11303
G1 X161.735 Y123.842 E41.20471
G1 X160.844 Y122.616 E41.29469
G1 X159.859 Y121.502 E41.38297
G1 X158.789 Y120.512 E41.46957
G1 X157.763 Y119.744 E41.54567
G1 X157.761 Y119.266 E41.57408
G1 X157.789 Y118.803 E41.60160
G1 X157.871 Y118.360 E41.62836
G1 X158.007 Y117.923 E41.65554
G1 X158.197 Y117.496 E41.68327
G1 X158.439 Y117.083 E41.71173
G1 X158.732 Y116.689 E41.74089
G1 X159.075 Y116.317 E41.77089
G1 X159.464 Y115.972 E41.80184
G1 X159.895 Y115.657 E41.83352
G1 X160.367 Y115.376 E41.86614
G1 X160.872 Y115.132 E41.89946
G1 X161.407 Y114.929 E41.93343
G1 X161.966 Y114.767 E41.96795
G1 X162.542 Y114.651 E42.00288
G1 X163.132 Y114.581 E42.03812
G1 X163.727 Y114.558 E42.07349
G1 X164.320 Y114.581 E42.10872
G1 X164.911 Y114.651 E42.14411
G1 X165.488 Y114.767 E42.17903
G1 X166.046 Y114.929 E42.21355
G1 X166.581 Y115.132 E42.24752
G1 X167.086 Y115.376 E42.28084
G1 X167.558 Y115.657 E42.31346
G1 X167.989 Y115.972 E42.34514
G1 X168.379 Y116.317 E42.37609
G1 X168.721 Y116.689 E42.40609
G1 X169.014 Y117.083 E42.43525
G1 X169.257 Y117.496 E42.46371
G1 X169.447 Y117.923 E42.49144
G1 X169.583 Y118.360 E42.51863
G1 X169.665 Y118.803 E42.54538
G1 X169.693 Y119.267 E42.57296
G1 X169.693 Y155.443 E44.72119
G1 X30.367 Y155.443 E52.99472
G1 X29.950 Y155.800 F7800.000
G1 F1800
G1 X29.950 Y119.256 E55.16482
G1 X29.978 Y118.758 E55.19442
G1 X30.061 Y118.271 E55.22377
G1 X30.198 Y117.794 E55.25320
G1 X30.390 Y117.327 E55.28319
G1 X30.631 Y116.880 E55.31340
G1 X30.924 Y116.455 E55.34401
G1 X31.263 Y116.057 E55.37508
G1 X31.645 Y115.688 E55.40660
G1 X32.068 Y115.355 E55.43860
G1 X32.527 Y115.058 E55.47106
G1 X33.018 Y114.801 E55.50395
G1 X33.535 Y114.588 E55.53717
G1 X34.075 Y114.419 E55.57072
G1 X34.630 Y114.298 E55.60451
G1 X35.198 Y114.225 E55.63852
G1 X35.771 Y114.200 E55.67258
G1 X36.342 Y114.225 E55.70650
G1 X36.912 Y114.298 E55.74065
G1 X37.468 Y114.419 E55.77443
G1 X38.008 Y114.588 E55.80799
G1 X38.525 Y114.801 E55.84120
G1 X39.015 Y115.058 E55.87409
G1 X39.475 Y115.355 E55.90655
G1 X39.898 Y115.688 E55.93855
G1 X40.280 Y116.057 E55.97007
G1 X40.619 Y116.455 E56.00114
G1 X40.911 Y116.880 E56.03176
G1 X41.153 Y117.327 E56.06196
G1 X41.345 Y117.792 E56.09183
G1 X41.482 Y118.271 E56.12139
G1 X41.565 Y118.758 E56.15073
G1 X41.593 Y119.255 E56.18032
G1 X41.590 Y119.924 E56.22000
G1 X40.436 Y120.787 E56.30557
G1 X39.393 Y121.752 E56.38999
G1 X38.431 Y122.840 E56.47620
G1 X37.560 Y124.038 E56.56418
G1 X36.788 Y125.338 E56.65395
G1 X36.122 Y126.723 E56.74520
G1 X35.569 Y128.182 E56.83788
G1 X35.133 Y129.703 E56.93181
G1 X34.819 Y131.268 E57.02663
G1 X34.629 Y132.864 E57.12207
G1 X34.565 Y134.475 E57.21780
G1 X34.629 Y136.086 E57.31353
G1 X34.819 Y137.682 E57.40898
G1 X35.133 Y139.247 E57.50380
G1 X35.569 Y140.768 E57.59772
G1 X36.122 Y142.227 E57.69041
G1 X36.788 Y143.612 E57.78166
G1 X37.560 Y144.912 E57.87142
G1 X38.431 Y146.110 E57.95941
G1 X39.393 Y147.198 E58.04561
G1 X40.436 Y148.163 E58.13003
G1 X41.551 Y148.997 E58.21272
G1 X42.728 Y149.691 E58.29381
G1 X43.954 Y150.239 E58.37358
G1 X45.214 Y150.632 E58.45196
G1 X46.509 Y150.872 E58.53018
G1 X47.806 Y150.952 E58.60734
G1 X151.190 Y150.952 E64.74656
G1 X152.487 Y150.872 E64.82371
G1 X153.777 Y150.634 E64.90162
G1 X155.042 Y150.239 E64.98032
G1 X156.269 Y149.691 E65.06009
G1 X157.445 Y148.997 E65.14118
G1 X158.560 Y148.163 E65.22386
G1 X159.604 Y147.198 E65.30828
G1 X160.565 Y146.110 E65.39449
G1 X161.436 Y144.912 E65.48247
G1 X162.208 Y143.612 E65.57224
G1 X162.874 Y142.227 E65.66349
G1 X163.427 Y140.768 E65.75617
G1 X163.863 Y139.247 E65.85010
G1 X164.177 Y137.682 E65.94492
G1 X164.367 Y136.086 E66.04036
G1 X164.432 Y134.475 E66.13609
G1 X164.367 Y132.864 E66.23182
G1 X164.177 Y131.268 E66.32725
G1 X163.863 Y129.703 E66.42208
G1 X163.427 Y128.182 E66.51601
G1 X162.874 Y126.723 E66.60869
G1 X162.208 Y125.338 E66.69994
G1 X161.436 Y124.038 E66.78970
G1 X160.565 Y122.840 E66.87769
G1 X159.604 Y121.752 E66.96390
G1 X158.560 Y120.787 E67.04831
G1 X157.406 Y119.924 E67.13388
G1 X157.404 Y119.256 E67.17355
G1 X157.434 Y118.760 E67.20304
G1 X157.524 Y118.274 E67.23236
G1 X157.672 Y117.797 E67.26205
G1 X157.878 Y117.333 E67.29221
G1 X158.141 Y116.886 E67.32301
G1 X158.457 Y116.461 E67.35444
G1 X158.824 Y116.062 E67.38662
G1 X159.240 Y115.693 E67.41965
G1 X159.698 Y115.359 E67.45334
G1 X160.198 Y115.061 E67.48785
G1 X160.731 Y114.803 E67.52303
G1 X161.294 Y114.590 E67.55880
G1 X161.881 Y114.420 E67.59505
G1 X162.486 Y114.298 E67.63171
G1 X163.103 Y114.225 E67.66864
G1 X163.727 Y114.200 E67.70569
G1 X164.348 Y114.225 E67.74259
G1 X164.968 Y114.298 E67.77967
G1 X165.573 Y114.420 E67.81632
G1 X166.159 Y114.590 E67.85258
G1 X166.723 Y114.803 E67.88834
G1 X167.256 Y115.061 E67.92352
G1 X167.755 Y115.359 E67.95804
G1 X168.214 Y115.693 E67.99173
G1 X168.629 Y116.062 E68.02475
G1 X168.997 Y116.461 E68.05694
G1 X169.312 Y116.886 E68.08836
G1 X169.575 Y117.333 E68.11916
G1 X169.782 Y117.797 E68.14933
G1 X169.930 Y118.274 E68.17901
G1 X170.020 Y118.760 E68.20833
G1 X170.050 Y119.256 E68.23785
G1 X170.050 Y155.800 E70.40793
G1 X30.010 Y155.800 E78.72386
G1 X30.120 Y155.438 F7800.000
G1 E76.72386 F2400.00000
G92 E0
G1 X31.922 Y116.914 F7800.000
G1 E2.00000 F2400.00000
G1 F1800
G1 X31.902 Y116.934 E2.00173
G1 X32.489 Y116.358 E2.05062
G1 X32.830 Y116.088 E2.07648
G1 X33.207 Y115.845 E2.10310
G1 X33.775 Y115.566 E2.14075
G1 X31.083 Y118.258 E2.36702
G1 X30.968 Y118.648 E2.39117
G1 X30.921 Y118.926 E2.40794
G1 X34.542 Y115.305 E2.71226
G1 X35.164 Y115.188 E2.74990
G1 X30.882 Y119.470 E3.10976
G1 X30.882 Y119.975 E3.13980
G1 X35.716 Y115.142 E3.54605
G1 X36.216 Y115.147 E3.57580
G1 X30.882 Y120.481 E4.02413
G1 X30.882 Y120.986 E4.05417
G1 X36.677 Y115.191 E4.54124
G1 X37.106 Y115.268 E4.56713
G1 X30.882 Y121.491 E5.09025
G1 X30.882 Y121.997 E5.12029
G1 X37.507 Y115.372 E5.67713
G1 X37.885 Y115.500 E5.70081
G1 X30.882 Y122.502 E6.28935
G1 X30.882 Y123.008 E6.31938
G1 X38.240 Y115.650 E6.93783
G1 X38.572 Y115.823 E6.96008
G1 X30.882 Y123.513 E7.60640
G1 X30.882 Y124.019 E7.63643
G1 X38.882 Y116.019 E8.30882
G1 X39.173 Y116.233 E8.33030
G1 X30.882 Y124.524 E9.02717
G1 X30.882 Y125.029 E9.05721
G1 X39.445 Y116.467 E9.77690
G1 X39.696 Y116.721 E9.79814
G1 X30.882 Y125.535 E10.53893
G1 X30.882 Y126.040 E10.56897
G1 X39.926 Y116.996 E11.32909
G1 X40.132 Y117.296 E11.35069
G1 X30.882 Y126.546 E12.12812
G1 X30.882 Y127.051 E12.15816
G1 X40.310 Y117.624 E12.95053
G1 X40.459 Y117.979 E12.97347
G1 X30.882 Y127.556 E13.77842
G1 X30.882 Y128.062 E13.80845
G1 X40.575 Y118.369 E14.62309
G1 X40.641 Y118.808 E14.64947
G1 X30.882 Y128.567 E15.46971
G1 X30.882 Y129.073 E15.49975
G1 X37.224 Y122.731 E16.03274
G1 X36.803 Y123.310 E16.07523
G1 X36.295 Y124.165 E16.13437
G1 X30.882 Y129.578 E16.58932
G1 X30.882 Y130.083 E16.61936
G1 X35.712 Y125.254 E17.02531
G1 X35.255 Y126.216 E17.08865
G1 X30.882 Y130.589 E17.45617
G1 X30.882 Y131.094 E17.48621
G1 X34.947 Y127.030 E17.82782
G1 X34.656 Y127.826 E17.87817
G1 X30.882 Y131.600 E18.19537
G1 X30.882 Y132.105 E18.22541
G1 X34.453 Y128.534 E18.52553
G1 X34.250 Y129.243 E18.56934
G1 X30.882 Y132.610 E18.85238
G1 X30.882 Y133.116 E18.88241
G1 X34.116 Y129.883 E19.15417
G1 X33.989 Y130.515 E19.19251
G1 X30.882 Y133.621 E19.45359
G1 X30.882 Y134.127 E19.48363
G1 X33.879 Y131.130 E19.73550
G1 X33.811 Y131.704 E19.76986
G1 X30.882 Y134.632 E20.01597
G1 X30.882 Y135.138 E20.04601
G1 X33.742 Y132.278 E20.28636
G1 X33.691 Y132.834 E20.31957
G1 X30.882 Y135.643 E20.55564
G1 X30.882 Y136.148 E20.58567
